images/item-leaf.svg

<svg width="20" height="32" viewBox="0 0 20 32" fill="none" xmlns="http://www.w3.org/2000/svg">
<path d="M19.3243 18.4851C18.9176 9.40971 11.0094 0.620945 10.6569 0.238825C10.6569 0.238825 10.6569 0.238825 10.6118 0.238825L10.5033 0.114636L10.3858 0.038212H9.87968L9.70796 0H9.66277L9.50009 0.114636L9.40067 0.200613C9.40067 0.200613 9.40067 0.200613 9.35548 0.200613C9.003 0.620945 1.09482 9.41926 0.670042 18.4851C0.665548 18.5518 0.665548 18.6189 0.670042 18.6857C0.670042 19.0296 0.670042 19.3735 0.670042 19.7269C1.01348 29.5665 9.70796 31.9739 9.78026 31.993H10.0062C10.0813 32.0023 10.1571 32.0023 10.2322 31.993C10.3135 31.993 18.9989 29.5188 19.3333 19.7269C19.3333 19.3735 19.3333 19.0296 19.3333 18.6857C19.3333 18.6188 19.3243 18.5519 19.3243 18.4851ZM3.05605 15.132C4.86129 16.772 6.90236 18.0974 9.10242 19.0582V23.4049C6.88813 22.2489 3.48083 20.195 2.47763 18.3895C2.55902 17.2871 2.74369 16.1959 3.02894 15.132H3.05605ZM4.86364 10.2599C6.04575 11.5651 7.49608 12.5653 9.10242 13.1831V16.947C7.08304 16.0461 5.24312 14.7496 3.67967 13.1258C4.02349 12.1479 4.41876 11.1912 4.86364 10.2599ZM16.3508 13.1258C14.7881 14.7505 12.948 16.0471 10.9281 16.947V13.1831C12.5215 12.5601 13.959 11.5602 15.1307 10.2599C15.5866 11.1779 15.994 12.1219 16.3508 13.0876V13.1258ZM10.9281 11.1579V3.5155C12.136 5.08129 13.2383 6.73485 14.2269 8.46396C13.3552 9.6354 12.2129 10.55 10.91 11.1197L10.9281 11.1579ZM10.9281 23.424V19.0582C13.1365 18.106 15.1868 16.787 17.0016 15.1511C17.2784 16.219 17.454 17.3135 17.5258 18.4182C16.5316 20.195 13.1243 22.2394 10.91 23.3857L10.9281 23.424ZM9.1205 11.1579C7.81158 10.5809 6.66813 9.65222 5.80358 8.46396C6.7904 6.71844 7.89276 5.04887 9.10242 3.46774L9.1205 11.1579ZM2.66742 21.4083C4.64409 23.05 6.80555 24.4265 9.10242 25.5065V29.7098C7.45928 29.0042 6.00951 27.8747 4.88546 26.4246C3.7614 24.9745 2.99886 23.2499 2.66742 21.4083ZM10.91 29.7194V25.497C13.2088 24.4248 15.3707 23.0511 17.345 21.4083C17.0276 23.2569 16.2704 24.9898 15.1447 26.4437C14.0189 27.8977 12.5616 29.025 10.91 29.7194Z" fill="#2D3440"/>
</svg>

<svg xmlns="http://www.w3.org/2000/svg" width="20" height="32" fill="none"><path fill="#2D3440" d="M19.324 18.485C18.918 9.41 11.01.621 10.657.24h-.045l-.109-.124-.117-.077H9.88L9.708 0h-.045L9.5.115 9.4.2h-.045C9.003.62 1.095 9.419.67 18.485a1.494 1.494 0 0 0 0 .2v1.042c.343 9.84 9.038 12.247 9.11 12.266h.226c.075.01.151.01.226 0 .082 0 8.767-2.474 9.101-12.266v-1.041c0-.067-.009-.134-.009-.2ZM3.056 15.132a22.226 22.226 0 0 0 6.046 3.926v4.347c-2.214-1.156-5.621-3.21-6.624-5.015a17.58 17.58 0 0 1 .55-3.258h.028Zm1.808-4.872a11.106 11.106 0 0 0 4.238 2.923v3.764c-2.019-.9-3.859-2.197-5.422-3.821.343-.978.739-1.935 1.184-2.866Zm11.487 2.866a17.3 17.3 0 0 1-5.423 3.821v-3.764a11.112 11.112 0 0 0 4.203-2.923 28.79 28.79 0 0 1 1.22 2.828v.038Zm-5.423-1.968V3.515a43.227 43.227 0 0 1 3.299 4.949 8.28 8.28 0 0 1-3.317 2.656l.018.038Zm0 12.266v-4.366a22.21 22.21 0 0 0 6.074-3.907c.276 1.068.452 2.163.524 3.267-.994 1.777-4.402 3.821-6.616 4.968l.018.038ZM9.12 11.158a8.207 8.207 0 0 1-3.316-2.694 43.258 43.258 0 0 1 3.298-4.996l.018 7.69Zm-6.453 10.25a30.164 30.164 0 0 0 6.435 4.098v4.204a10.679 10.679 0 0 1-4.217-3.285 11.519 11.519 0 0 1-2.218-5.017Zm8.243 8.311v-4.222a29.675 29.675 0 0 0 6.435-4.089 11.368 11.368 0 0 1-2.2 5.036 10.53 10.53 0 0 1-4.235 3.275Z"/></svg>
